X: 5
T: The Fair-haired Lass
R: reel
M: 4/4
L: 1/8
K: Amix
|:eaag efgf|ea~a2 ABcd|eaag efge|afge d2cd:|
|:eA~A2 efgf|eA~A2 BAGB|AB=cd efge|afge d2cd:|


Tune 1231	Setting 14534

